Adwaita++-Dark/actions/16/fcitx-rime-sync.svg

<svg height="16" width="16" xmlns="http://www.w3.org/2000/svg">
  <path d="m8 2c-2.0074 0-3.8202 1.2006-4.6035 3.0488-1.9523.298-3.395 1.9763-3.3965 3.9512.00276 2.133 1.6783 3.888 3.8086 3.99v.01h.1914 9.523c1.368 0 2.477-1.109 2.477-2.477-.001-.8581-.447-1.6548-1.178-2.105.117-.2921.177-.6036.178-.918-.001-1.3493-1.073-2.4539-2.422-2.4961-.793-1.8222-2.5906-3.0015-4.578-3.0039zm2 2 2 3h-1v3h-2v-3h-1zm-5 1h2v3h1l-2 3-2-3h1z" fill="#e6ddff"/>
</svg>

<svg xmlns="http://www.w3.org/2000/svg" width="16" height="16" version="1.1">
 <defs>
  <style id="current-color-scheme" type="text/css">
   .ColorScheme-Text { color:#E6DDFF; } .ColorScheme-Highlight { color:#4285f4; }
  </style>
 </defs>
 <path style="fill:currentColor" class="ColorScheme-Text" d="M 8,2 C 5.9926,2 4.1798,3.2006 3.3965,5.0488 1.4442,5.3468 0.0015,7.0251 0,9 0.00276,11.133 1.6783,12.888 3.8086,12.99 V 13 H 4 13.523 C 14.891,13 16,11.891 16,10.523 15.999,9.6649 15.553,8.8682 14.822,8.418 14.939,8.1259 14.999,7.8144 15,7.5 14.999,6.1507 13.927,5.0461 12.578,5.0039 11.785,3.1817 9.9874,2.0024 8,2 Z M 10,4 12,7 H 11 V 10 H 9 V 7 H 8 Z M 5,5 H 7 V 8 H 8 L 6,11 4,8 H 5 Z"/>
</svg>
